X:602
T:Miss Abercromby
R:Reel
C:William Marshall
B:The Athole Collection
M:C|
L:1/8
K:C Minor
EDCD EFGE|FBEB DB,FD|EDCD EFGc|BGFD C/C/C C2:|
edcd efge|dcBc defd|edcd efge|dc=Bd c/c/c ~c2|edcd efge|
dcBc defd|gefd ecdB|GBFD C/C/C C2||

